X:1
T: Highland Rant
C:
R:Reel
Q: 232
K:Am
M:4/4
L:1/16
|:e3A AAA2 e2d2 B2d2|e3A AAA2 d2B2 G2B2|e3A AAA2 e2^f2 g2a2|g2e2 g2d2 B2G2 d2B2|
e3A AAA2 e2d2 B2d2|e3A AAA2 d2B2 G2B2|e3A AAA2 e2^f2 g2a2|g2e2 g2d2 B2G2 d2B2|
AAA2 e4 AAA2 a4|AAA2 e4 g2d2 B2G2|AAA2 e4 AAA2 a4|g2e2 g2d2 B2G2 d2B2|
AAA2 e4 AAA2 a4|AAA2 e4 g2d2 B2G2|A2c2 B2d2 c2e2 d2f2|e2d2 c2B2 A4 a4:|
